report_00007_2020-12-11T15:55:29.892Z/uses-long-cache-ttl/comparison/line/3_vs_4.svg

<svg width="640" height="500" xmlns="http://www.w3.org/2000/svg" xmlns:xlink="http://www.w3.org/1999/xlink"><path fill="#fff" d="M0 0h640v500H0z"/><defs><path id="d" stroke-width=".222" stroke="currentColor" d="M-1-1h2v2h-2z"/><path id="b" stroke-width=".222" stroke="currentColor" d="M0-1.33l-1.33 2h2.66z"/><path id="f" stroke-width=".222" stroke="currentColor" d="M0 1.33L1.265.411.782-1.067l-1.564-.009-.483 1.487z"/><use xlink:href="#b" id="c" stroke="currentColor" transform="rotate(180)"/><use xlink:href="#d" id="e" stroke="currentColor" transform="rotate(45)"/><circle id="a" stroke-width=".222" stroke="currentColor" cx="0" cy="0" r="1"/></defs><g fill="none" color="#000" stroke="currentColor"><path stroke="#000" d="M78.8 382.2h9m527.2 0h-9"/><text transform="translate(70.5 386.1)" stroke="none" fill="#000" font-family="Arial" font-size="12" text-anchor="end"><tspan>100000</tspan></text></g><g fill="none" color="#000" stroke="currentColor"><path stroke="#000" d="M78.8 304.6h9m527.2 0h-9"/><text transform="translate(70.5 308.5)" stroke="none" fill="#000" font-family="Arial" font-size="12" text-anchor="end"><tspan>200000</tspan></text></g><g fill="none" color="#000" stroke="currentColor"><path stroke="#000" d="M78.8 227.1h9m527.2 0h-9"/><text transform="translate(70.5 231)" stroke="none" fill="#000" font-family="Arial" font-size="12" text-anchor="end"><tspan>300000</tspan></text></g><g fill="none" color="#000" stroke="currentColor"><path stroke="#000" d="M78.8 149.5h9m527.2 0h-9"/><text transform="translate(70.5 153.4)" stroke="none" fill="#000" font-family="Arial" font-size="12" text-anchor="end"><tspan>400000</tspan></text></g><g fill="none" color="#000" stroke="currentColor"><path stroke="#000" d="M78.8 72h9M615 72h-9"/><text transform="translate(70.5 75.9)" stroke="none" fill="#000" font-family="Arial" font-size="12" text-anchor="end"><tspan>500000</tspan></text></g><g fill="none" color="#000" stroke="currentColor"><path stroke="#000" d="M78.8 428v-9m0-400.9v9"/><text transform="translate(78.8 449.9)" stroke="none" fill="#000" font-family="Arial" font-size="12" text-anchor="middle"><tspan>0</tspan></text></g><g fill="none" color="#000" stroke="currentColor"><path stroke="#000" d="M133 428v-9m0-400.9v9"/><text transform="translate(133 449.9)" stroke="none" fill="#000" font-family="Arial" font-size="12" text-anchor="middle"><tspan>10</tspan></text></g><g fill="none" color="#000" stroke="currentColor"><path stroke="#000" d="M187.1 428v-9m0-400.9v9"/><text transform="translate(187.1 449.9)" stroke="none" fill="#000" font-family="Arial" font-size="12" text-anchor="middle"><tspan>20</tspan></text></g><g fill="none" color="#000" stroke="currentColor"><path stroke="#000" d="M241.3 428v-9m0-400.9v9"/><text transform="translate(241.3 449.9)" stroke="none" fill="#000" font-family="Arial" font-size="12" text-anchor="middle"><tspan>30</tspan></text></g><g fill="none" color="#000" stroke="currentColor"><path stroke="#000" d="M295.4 428v-9m0-400.9v9"/><text transform="translate(295.4 449.9)" stroke="none" fill="#000" font-family="Arial" font-size="12" text-anchor="middle"><tspan>40</tspan></text></g><g fill="none" color="#000" stroke="currentColor"><path stroke="#000" d="M349.6 428v-9m0-400.9v9"/><text transform="translate(349.6 449.9)" stroke="none" fill="#000" font-family="Arial" font-size="12" text-anchor="middle"><tspan>50</tspan></text></g><g fill="none" color="#000" stroke="currentColor"><path stroke="#000" d="M403.8 428v-9m0-400.9v9"/><text transform="translate(403.8 449.9)" stroke="none" fill="#000" font-family="Arial" font-size="12" text-anchor="middle"><tspan>60</tspan></text></g><g fill="none" color="#000" stroke="currentColor"><path stroke="#000" d="M457.9 428v-9m0-400.9v9"/><text transform="translate(457.9 449.9)" stroke="none" fill="#000" font-family="Arial" font-size="12" text-anchor="middle"><tspan>70</tspan></text></g><g fill="none" color="#000" stroke="currentColor"><path stroke="#000" d="M512.1 428v-9m0-400.9v9"/><text transform="translate(512.1 449.9)" stroke="none" fill="#000" font-family="Arial" font-size="12" text-anchor="middle"><tspan>80</tspan></text></g><g fill="none" color="#000" stroke="currentColor"><path stroke="#000" d="M566.3 428v-9m0-400.9v9"/><text transform="translate(566.3 449.9)" stroke="none" fill="#000" font-family="Arial" font-size="12" text-anchor="middle"><tspan>90</tspan></text></g><path stroke="#000" d="M78.8 18.1V428H615V18.1H78.8z" fill="none" color="#000"/><text transform="translate(288.1 467.9)" stroke="none" fill="#000" font-family="Arial" font-size="12" text-anchor="end" color="#000"><tspan>pages+cached+nointeractive</tspan></text><path stroke="#9400D3" d="M296.4 464h42.2M78.8 26H615" fill="none" color="#000"/><text transform="translate(288.1 485.9)" stroke="none" fill="#000" font-family="Arial" font-size="12" text-anchor="end" color="#000"><tspan>pages+cached+noadtech</tspan></text><path stroke="#009E73" d="M296.4 482h42.2M78.8 420.1H615" fill="none" color="#000"/><text transform="translate(562.7 467.9)" stroke="none" fill="#000" font-family="Arial" font-size="12" text-anchor="end" color="#000"><tspan>score p10=28672</tspan></text><path stroke="#56B4E9" d="M571 464h42.2" fill="none" color="#000"/><g><text transform="translate(562.7 485.9)" stroke="none" fill="#000" font-family="Arial" font-size="12" text-anchor="end" color="#000"><tspan>score median=131072</tspan></text><path stroke="#E69F00" d="M571 482h42.2M78.8 358.1H615" fill="none" color="#000"/></g><g fill="none" color="#000" stroke="currentColor"><path stroke="#000" d="M78.8 18.1V428H615V18.1H78.8z"/></g></svg>

<?xml version="1.0" encoding="utf-8"  standalone="no"?>
<svg 
 width="640" height="500"
 viewBox="0 0 640 500"
 xmlns="http://www.w3.org/2000/svg"
 xmlns:xlink="http://www.w3.org/1999/xlink"
>

<title>Gnuplot</title>
<desc>Produced by GNUPLOT 5.4 patchlevel 0 </desc>

<g id="gnuplot_canvas">

<rect x="0" y="0" width="640" height="500" fill="#ffffff"/>
<defs>

	<circle id='gpDot' r='0.5' stroke-width='0.5' stroke='currentColor'/>
	<path id='gpPt0' stroke-width='0.222' stroke='currentColor' d='M-1,0 h2 M0,-1 v2'/>
	<path id='gpPt1' stroke-width='0.222' stroke='currentColor' d='M-1,-1 L1,1 M1,-1 L-1,1'/>
	<path id='gpPt2' stroke-width='0.222' stroke='currentColor' d='M-1,0 L1,0 M0,-1 L0,1 M-1,-1 L1,1 M-1,1 L1,-1'/>
	<rect id='gpPt3' stroke-width='0.222' stroke='currentColor' x='-1' y='-1' width='2' height='2'/>
	<rect id='gpPt4' stroke-width='0.222' stroke='currentColor' fill='currentColor' x='-1' y='-1' width='2' height='2'/>
	<circle id='gpPt5' stroke-width='0.222' stroke='currentColor' cx='0' cy='0' r='1'/>
	<use xlink:href='#gpPt5' id='gpPt6' fill='currentColor' stroke='none'/>
	<path id='gpPt7' stroke-width='0.222' stroke='currentColor' d='M0,-1.33 L-1.33,0.67 L1.33,0.67 z'/>
	<use xlink:href='#gpPt7' id='gpPt8' fill='currentColor' stroke='none'/>
	<use xlink:href='#gpPt7' id='gpPt9' stroke='currentColor' transform='rotate(180)'/>
	<use xlink:href='#gpPt9' id='gpPt10' fill='currentColor' stroke='none'/>
	<use xlink:href='#gpPt3' id='gpPt11' stroke='currentColor' transform='rotate(45)'/>
	<use xlink:href='#gpPt11' id='gpPt12' fill='currentColor' stroke='none'/>
	<path id='gpPt13' stroke-width='0.222' stroke='currentColor' d='M0,1.330 L1.265,0.411 L0.782,-1.067 L-0.782,-1.076 L-1.265,0.411 z'/>
	<use xlink:href='#gpPt13' id='gpPt14' fill='currentColor' stroke='none'/>
	<filter id='textbox' filterUnits='objectBoundingBox' x='0' y='0' height='1' width='1'>
	  <feFlood flood-color='#FFFFFF' flood-opacity='1' result='bgnd'/>
	  <feComposite in='SourceGraphic' in2='bgnd' operator='atop'/>
	</filter>
	<filter id='greybox' filterUnits='objectBoundingBox' x='0' y='0' height='1' width='1'>
	  <feFlood flood-color='lightgrey' flood-opacity='1' result='grey'/>
	  <feComposite in='SourceGraphic' in2='grey' operator='atop'/>
	</filter>
</defs>
<g fill="none" color="#FFFFFF" stroke="black" stroke-width="1.00" stroke-linecap="butt" stroke-linejoin="miter">
</g>
<g fill="none" color="black" stroke="currentColor" stroke-width="1.00" stroke-linecap="butt" stroke-linejoin="miter">
	<path stroke='black'  d='M78.8,382.2 L87.8,382.2 M615.0,382.2 L606.0,382.2  '/>	<g transform="translate(70.5,386.1)" stroke="none" fill="black" font-family="Arial" font-size="12.00"  text-anchor="end">
		<text><tspan font-family="Arial" > 100000</tspan></text>
	</g>
</g>
<g fill="none" color="black" stroke="currentColor" stroke-width="1.00" stroke-linecap="butt" stroke-linejoin="miter">
	<path stroke='black'  d='M78.8,304.6 L87.8,304.6 M615.0,304.6 L606.0,304.6  '/>	<g transform="translate(70.5,308.5)" stroke="none" fill="black" font-family="Arial" font-size="12.00"  text-anchor="end">
		<text><tspan font-family="Arial" > 200000</tspan></text>
	</g>
</g>
<g fill="none" color="black" stroke="currentColor" stroke-width="1.00" stroke-linecap="butt" stroke-linejoin="miter">
	<path stroke='black'  d='M78.8,227.1 L87.8,227.1 M615.0,227.1 L606.0,227.1  '/>	<g transform="translate(70.5,231.0)" stroke="none" fill="black" font-family="Arial" font-size="12.00"  text-anchor="end">
		<text><tspan font-family="Arial" > 300000</tspan></text>
	</g>
</g>
<g fill="none" color="black" stroke="currentColor" stroke-width="1.00" stroke-linecap="butt" stroke-linejoin="miter">
	<path stroke='black'  d='M78.8,149.5 L87.8,149.5 M615.0,149.5 L606.0,149.5  '/>	<g transform="translate(70.5,153.4)" stroke="none" fill="black" font-family="Arial" font-size="12.00"  text-anchor="end">
		<text><tspan font-family="Arial" > 400000</tspan></text>
	</g>
</g>
<g fill="none" color="black" stroke="currentColor" stroke-width="1.00" stroke-linecap="butt" stroke-linejoin="miter">
	<path stroke='black'  d='M78.8,72.0 L87.8,72.0 M615.0,72.0 L606.0,72.0  '/>	<g transform="translate(70.5,75.9)" stroke="none" fill="black" font-family="Arial" font-size="12.00"  text-anchor="end">
		<text><tspan font-family="Arial" > 500000</tspan></text>
	</g>
</g>
<g fill="none" color="black" stroke="currentColor" stroke-width="1.00" stroke-linecap="butt" stroke-linejoin="miter">
	<path stroke='black'  d='M78.8,428.0 L78.8,419.0 M78.8,18.1 L78.8,27.1  '/>	<g transform="translate(78.8,449.9)" stroke="none" fill="black" font-family="Arial" font-size="12.00"  text-anchor="middle">
		<text><tspan font-family="Arial" > 0</tspan></text>
	</g>
</g>
<g fill="none" color="black" stroke="currentColor" stroke-width="1.00" stroke-linecap="butt" stroke-linejoin="miter">
	<path stroke='black'  d='M133.0,428.0 L133.0,419.0 M133.0,18.1 L133.0,27.1  '/>	<g transform="translate(133.0,449.9)" stroke="none" fill="black" font-family="Arial" font-size="12.00"  text-anchor="middle">
		<text><tspan font-family="Arial" > 10</tspan></text>
	</g>
</g>
<g fill="none" color="black" stroke="currentColor" stroke-width="1.00" stroke-linecap="butt" stroke-linejoin="miter">
	<path stroke='black'  d='M187.1,428.0 L187.1,419.0 M187.1,18.1 L187.1,27.1  '/>	<g transform="translate(187.1,449.9)" stroke="none" fill="black" font-family="Arial" font-size="12.00"  text-anchor="middle">
		<text><tspan font-family="Arial" > 20</tspan></text>
	</g>
</g>
<g fill="none" color="black" stroke="currentColor" stroke-width="1.00" stroke-linecap="butt" stroke-linejoin="miter">
	<path stroke='black'  d='M241.3,428.0 L241.3,419.0 M241.3,18.1 L241.3,27.1  '/>	<g transform="translate(241.3,449.9)" stroke="none" fill="black" font-family="Arial" font-size="12.00"  text-anchor="middle">
		<text><tspan font-family="Arial" > 30</tspan></text>
	</g>
</g>
<g fill="none" color="black" stroke="currentColor" stroke-width="1.00" stroke-linecap="butt" stroke-linejoin="miter">
	<path stroke='black'  d='M295.4,428.0 L295.4,419.0 M295.4,18.1 L295.4,27.1  '/>	<g transform="translate(295.4,449.9)" stroke="none" fill="black" font-family="Arial" font-size="12.00"  text-anchor="middle">
		<text><tspan font-family="Arial" > 40</tspan></text>
	</g>
</g>
<g fill="none" color="black" stroke="currentColor" stroke-width="1.00" stroke-linecap="butt" stroke-linejoin="miter">
	<path stroke='black'  d='M349.6,428.0 L349.6,419.0 M349.6,18.1 L349.6,27.1  '/>	<g transform="translate(349.6,449.9)" stroke="none" fill="black" font-family="Arial" font-size="12.00"  text-anchor="middle">
		<text><tspan font-family="Arial" > 50</tspan></text>
	</g>
</g>
<g fill="none" color="black" stroke="currentColor" stroke-width="1.00" stroke-linecap="butt" stroke-linejoin="miter">
	<path stroke='black'  d='M403.8,428.0 L403.8,419.0 M403.8,18.1 L403.8,27.1  '/>	<g transform="translate(403.8,449.9)" stroke="none" fill="black" font-family="Arial" font-size="12.00"  text-anchor="middle">
		<text><tspan font-family="Arial" > 60</tspan></text>
	</g>
</g>
<g fill="none" color="black" stroke="currentColor" stroke-width="1.00" stroke-linecap="butt" stroke-linejoin="miter">
	<path stroke='black'  d='M457.9,428.0 L457.9,419.0 M457.9,18.1 L457.9,27.1  '/>	<g transform="translate(457.9,449.9)" stroke="none" fill="black" font-family="Arial" font-size="12.00"  text-anchor="middle">
		<text><tspan font-family="Arial" > 70</tspan></text>
	</g>
</g>
<g fill="none" color="black" stroke="currentColor" stroke-width="1.00" stroke-linecap="butt" stroke-linejoin="miter">
	<path stroke='black'  d='M512.1,428.0 L512.1,419.0 M512.1,18.1 L512.1,27.1  '/>	<g transform="translate(512.1,449.9)" stroke="none" fill="black" font-family="Arial" font-size="12.00"  text-anchor="middle">
		<text><tspan font-family="Arial" > 80</tspan></text>
	</g>
</g>
<g fill="none" color="black" stroke="currentColor" stroke-width="1.00" stroke-linecap="butt" stroke-linejoin="miter">
	<path stroke='black'  d='M566.3,428.0 L566.3,419.0 M566.3,18.1 L566.3,27.1  '/>	<g transform="translate(566.3,449.9)" stroke="none" fill="black" font-family="Arial" font-size="12.00"  text-anchor="middle">
		<text><tspan font-family="Arial" > 90</tspan></text>
	</g>
</g>
<g fill="none" color="black" stroke="currentColor" stroke-width="1.00" stroke-linecap="butt" stroke-linejoin="miter">
</g>
<g fill="none" color="black" stroke="currentColor" stroke-width="1.00" stroke-linecap="butt" stroke-linejoin="miter">
	<path stroke='black'  d='M78.8,18.1 L78.8,428.0 L615.0,428.0 L615.0,18.1 L78.8,18.1 Z  '/></g>
<g fill="none" color="black" stroke="currentColor" stroke-width="1.00" stroke-linecap="butt" stroke-linejoin="miter">
</g>
	<g id="gnuplot_plot_1" ><title>pages+cached+nointeractive</title>
<g fill="none" color="black" stroke="currentColor" stroke-width="1.00" stroke-linecap="butt" stroke-linejoin="miter">
	<g transform="translate(288.1,467.9)" stroke="none" fill="black" font-family="Arial" font-size="12.00"  text-anchor="end">
		<text><tspan font-family="Arial" >pages+cached+nointeractive</tspan></text>
	</g>
</g>
<g fill="none" color="black" stroke="currentColor" stroke-width="1.00" stroke-linecap="butt" stroke-linejoin="miter">
	<path stroke='rgb(148,   0, 211)'  d='M296.4,464.0 L338.6,464.0 M78.8,26.0 L84.2,26.0 L89.6,26.0 L95.0,26.0 L100.5,26.0 L105.9,26.0
		L111.3,26.0 L116.7,26.0 L122.1,26.0 L127.5,26.0 L133.0,26.0 L138.4,26.0 L143.8,26.0 L149.2,26.0
		L154.6,26.0 L160.0,26.0 L165.5,26.0 L170.9,26.0 L176.3,26.0 L181.7,26.0 L187.1,26.0 L192.5,26.0
		L198.0,26.0 L203.4,26.0 L208.8,26.0 L214.2,26.0 L219.6,26.0 L225.0,26.0 L230.5,26.0 L235.9,26.0
		L241.3,26.0 L246.7,26.0 L252.1,26.0 L257.5,26.0 L262.9,26.0 L268.4,26.0 L273.8,26.0 L279.2,26.0
		L284.6,26.0 L290.0,26.0 L295.4,26.0 L300.9,26.0 L306.3,26.0 L311.7,26.0 L317.1,26.0 L322.5,26.0
		L327.9,26.0 L333.4,26.0 L338.8,26.0 L344.2,26.0 L349.6,26.0 L355.0,26.0 L360.4,26.0 L365.9,26.0
		L371.3,26.0 L376.7,26.0 L382.1,26.0 L387.5,26.0 L392.9,26.0 L398.4,26.0 L403.8,26.0 L409.2,26.0
		L414.6,26.0 L420.0,26.0 L425.4,26.0 L430.9,26.0 L436.3,26.0 L441.7,26.0 L447.1,26.0 L452.5,26.0
		L457.9,26.0 L463.3,26.0 L468.8,26.0 L474.2,26.0 L479.6,26.0 L485.0,26.0 L490.4,26.0 L495.8,26.0
		L501.3,26.0 L506.7,26.0 L512.1,26.0 L517.5,26.0 L522.9,26.0 L528.3,26.0 L533.8,26.0 L539.2,26.0
		L544.6,26.0 L550.0,26.0 L555.4,26.0 L560.8,26.0 L566.3,26.0 L571.7,26.0 L577.1,26.0 L582.5,26.0
		L587.9,26.0 L593.3,26.0 L598.8,26.0 L604.2,26.0 L609.6,26.0 L615.0,26.0  '/></g>
	</g>
	<g id="gnuplot_plot_2" ><title>pages+cached+noadtech</title>
<g fill="none" color="black" stroke="currentColor" stroke-width="1.00" stroke-linecap="butt" stroke-linejoin="miter">
	<g transform="translate(288.1,485.9)" stroke="none" fill="black" font-family="Arial" font-size="12.00"  text-anchor="end">
		<text><tspan font-family="Arial" >pages+cached+noadtech</tspan></text>
	</g>
</g>
<g fill="none" color="black" stroke="currentColor" stroke-width="1.00" stroke-linecap="butt" stroke-linejoin="miter">
	<path stroke='rgb(  0, 158, 115)'  d='M296.4,482.0 L338.6,482.0 M78.8,420.1 L84.2,420.1 L89.6,420.1 L95.0,420.1 L100.5,420.1 L105.9,420.1
		L111.3,420.1 L116.7,420.1 L122.1,420.1 L127.5,420.1 L133.0,420.1 L138.4,420.1 L143.8,420.1 L149.2,420.1
		L154.6,420.1 L160.0,420.1 L165.5,420.1 L170.9,420.1 L176.3,420.1 L181.7,420.1 L187.1,420.1 L192.5,420.1
		L198.0,420.1 L203.4,420.1 L208.8,420.1 L214.2,420.1 L219.6,420.1 L225.0,420.1 L230.5,420.1 L235.9,420.1
		L241.3,420.1 L246.7,420.1 L252.1,420.1 L257.5,420.1 L262.9,420.1 L268.4,420.1 L273.8,420.1 L279.2,420.1
		L284.6,420.1 L290.0,420.1 L295.4,420.1 L300.9,420.1 L306.3,420.1 L311.7,420.1 L317.1,420.1 L322.5,420.1
		L327.9,420.1 L333.4,420.1 L338.8,420.1 L344.2,420.1 L349.6,420.1 L355.0,420.1 L360.4,420.1 L365.9,420.1
		L371.3,420.1 L376.7,420.1 L382.1,420.1 L387.5,420.1 L392.9,420.1 L398.4,420.1 L403.8,420.1 L409.2,420.1
		L414.6,420.1 L420.0,420.1 L425.4,420.1 L430.9,420.1 L436.3,420.1 L441.7,420.1 L447.1,420.1 L452.5,420.1
		L457.9,420.1 L463.3,420.1 L468.8,420.1 L474.2,420.1 L479.6,420.1 L485.0,420.1 L490.4,420.1 L495.8,420.1
		L501.3,420.1 L506.7,420.1 L512.1,420.1 L517.5,420.1 L522.9,420.1 L528.3,420.1 L533.8,420.1 L539.2,420.1
		L544.6,420.1 L550.0,420.1 L555.4,420.1 L560.8,420.1 L566.3,420.1 L571.7,420.1 L577.1,420.1 L582.5,420.1
		L587.9,420.1 L593.3,420.1 L598.8,420.1 L604.2,420.1 L609.6,420.1 L615.0,420.1  '/></g>
	</g>
	<g id="gnuplot_plot_3" ><title>score p10=28672</title>
<g fill="none" color="black" stroke="currentColor" stroke-width="1.00" stroke-linecap="butt" stroke-linejoin="miter">
	<g transform="translate(562.7,467.9)" stroke="none" fill="black" font-family="Arial" font-size="12.00"  text-anchor="end">
		<text><tspan font-family="Arial" >score p10=28672</tspan></text>
	</g>
</g>
<g fill="none" color="black" stroke="currentColor" stroke-width="1.00" stroke-linecap="butt" stroke-linejoin="miter">
	<path stroke='rgb( 86, 180, 233)'  d='M571.0,464.0 L613.2,464.0  '/></g>
	</g>
	<g id="gnuplot_plot_4" ><title>score median=131072</title>
<g fill="none" color="black" stroke="currentColor" stroke-width="1.00" stroke-linecap="butt" stroke-linejoin="miter">
	<g transform="translate(562.7,485.9)" stroke="none" fill="black" font-family="Arial" font-size="12.00"  text-anchor="end">
		<text><tspan font-family="Arial" >score median=131072</tspan></text>
	</g>
</g>
<g fill="none" color="black" stroke="currentColor" stroke-width="1.00" stroke-linecap="butt" stroke-linejoin="miter">
	<path stroke='rgb(230, 159,   0)'  d='M571.0,482.0 L613.2,482.0 M78.8,358.1 L84.2,358.1 L89.6,358.1 L95.0,358.1 L100.5,358.1 L105.9,358.1
		L111.3,358.1 L116.7,358.1 L122.1,358.1 L127.5,358.1 L133.0,358.1 L138.4,358.1 L143.8,358.1 L149.2,358.1
		L154.6,358.1 L160.0,358.1 L165.5,358.1 L170.9,358.1 L176.3,358.1 L181.7,358.1 L187.1,358.1 L192.5,358.1
		L198.0,358.1 L203.4,358.1 L208.8,358.1 L214.2,358.1 L219.6,358.1 L225.0,358.1 L230.5,358.1 L235.9,358.1
		L241.3,358.1 L246.7,358.1 L252.1,358.1 L257.5,358.1 L262.9,358.1 L268.4,358.1 L273.8,358.1 L279.2,358.1
		L284.6,358.1 L290.0,358.1 L295.4,358.1 L300.9,358.1 L306.3,358.1 L311.7,358.1 L317.1,358.1 L322.5,358.1
		L327.9,358.1 L333.4,358.1 L338.8,358.1 L344.2,358.1 L349.6,358.1 L355.0,358.1 L360.4,358.1 L365.9,358.1
		L371.3,358.1 L376.7,358.1 L382.1,358.1 L387.5,358.1 L392.9,358.1 L398.4,358.1 L403.8,358.1 L409.2,358.1
		L414.6,358.1 L420.0,358.1 L425.4,358.1 L430.9,358.1 L436.3,358.1 L441.7,358.1 L447.1,358.1 L452.5,358.1
		L457.9,358.1 L463.3,358.1 L468.8,358.1 L474.2,358.1 L479.6,358.1 L485.0,358.1 L490.4,358.1 L495.8,358.1
		L501.3,358.1 L506.7,358.1 L512.1,358.1 L517.5,358.1 L522.9,358.1 L528.3,358.1 L533.8,358.1 L539.2,358.1
		L544.6,358.1 L550.0,358.1 L555.4,358.1 L560.8,358.1 L566.3,358.1 L571.7,358.1 L577.1,358.1 L582.5,358.1
		L587.9,358.1 L593.3,358.1 L598.8,358.1 L604.2,358.1 L609.6,358.1 L615.0,358.1  '/></g>
	</g>
<g fill="none" color="#FFFFFF" stroke="rgb(230, 159,   0)" stroke-width="2.00" stroke-linecap="butt" stroke-linejoin="miter">
</g>
<g fill="none" color="black" stroke="currentColor" stroke-width="2.00" stroke-linecap="butt" stroke-linejoin="miter">
</g>
<g fill="none" color="black" stroke="black" stroke-width="1.00" stroke-linecap="butt" stroke-linejoin="miter">
</g>
<g fill="none" color="black" stroke="currentColor" stroke-width="1.00" stroke-linecap="butt" stroke-linejoin="miter">
	<path stroke='black'  d='M78.8,18.1 L78.8,428.0 L615.0,428.0 L615.0,18.1 L78.8,18.1 Z  '/></g>
<g fill="none" color="black" stroke="currentColor" stroke-width="1.00" stroke-linecap="butt" stroke-linejoin="miter">
</g>
</g>
</svg>
